X:237
T: WEM DEUTSCHES BLUT IN SEINEN PULSEN BRENNET
N: F0412
O: Europa, Mitteleuropa, Deutschland
R: Vaterlands -, Heimat - Lied, nationalistisch
M: 4/4
L: 1/16
K: C
G,2A,2B,2 | C6C2D3CD3E | C4G,4z2
G,2B,2C2 | D6D2E3DC3E | D4G,4z2
G,2E2C2 | B,6B,2B,2B,2E2D2 | D2C2C4z2
D,2C2B,2 | A,6A,2A,2A,2D2C2 | C2B,2B,4z2
G,2B,2D2 | F6F2F6F2 | F4z6
F2F2F2 | E4G2F2E4D4 | C4z6

